X:1
T:Psalm 59
L:1/4
M:14/4
I:linebreak $
K:G
V:1 treble nm="Organ" snm="Org."
V:1
 G2 E D G2 G2 A A B2 z2 |$ B2 B B A c B2 A2 G2 z2 |$ B2 d c B2 G2 A A B2 z2 |$ %3
w: dat elk- een hel- der kan be- merk|by so 'n straf en oor- deels- werk|dat God reg- ver- dig von- nis vel|
 d2 d c B A B2 c2 d2 z2 |$ B2 B B c B A2 G2 F2 z2 |$ d2 c B A c B2 A2 G4 |] %6
w: en Ko- ning is in Is- ra- el;|dat Ja- kobs God sy heer- skap- py|oor el- ke land en volk ver- brei.|

